X: 1172
T: The Kerfunten
B: ralph
B: steve tunes
M:6/8
R: jig
Q: 3/8=100
K:Dmajor
V:1 
|:"D"F3 FED|FGA "G"(Bcd)|"D"A2B {/c}BAF|"A"E3 EDE|
 "D"F2F {/G}FED|FGA "G"(Bcd)|"D"A2B {/c}BAF|1 "A"EFE "D"D2E:|2 "A"EFE "D"DFA||
 |:"D"d3 def|"Bm7"B2B {/c}BAB|"D"d3 def|"Em7"fed "A"(e2f)|
 "D"d3 def|"Bm7"B3 BdB|"D"AFA dAF|1 "A"EFE "D"DFA:|2 "A"EFE "D"D2 E||
% abcbook-tune_id 63443f044e3e338e0a2699da


% abcbook-boost 0
% abcbook-tablature 
% abcbook-transpose 
% abcbook-lastupdated 1665988704792
% abcbook-soundfonts 
% abcbook-repeats 3


